X:1
T:On the Rock
T:On the Rock
T:Charles Clinton Case
T:Fred Woodrow, 1891
T:Public Domain Courtesy of the Cyber Hymnal™
T:Public Domain Courtesy of the Cyber Hymnal™
C:Charles Clinton Case
Z:Public Domain
Z:Courtesy of the Cyber Hymnal™
%%score ( 1 2 ) ( 3 4 )
L:1/8
Q:1/4=103
M:4/4
K:Bb
V:1 treble 
V:2 treble 
V:3 bass 
V:4 bass 
V:1
 [DF]>[EG] [DF]>[^C=E] [DF]2 [Fd]2 | ([Fd]3 [Ec]) [DB]2 [FB]2 | [FA]3 [EG] [DF]2 [CE]2 | %3
w: 1.~Stand- ing on the Rock of|Ag- * es, The|Rock that shall en-|
w: 2.~Stand- ing on the Rock of|Ag- * es, We|view the tran- quil|
w: 3.~Stand- ing on the Rock of|Ag- * es, No|need have we to|
 [B,D]6 z2 | [DF]2 [DF]>[^C=E] [DF]2 [Fd]2 | (d3 c) [FB]2 [Fd]2 | [=Ec]3 [EB] [EA]2 [EG]2 | F6 F2 | %8
w: dure,|Un- shak- en by the|tem- * pest, E-|ter- nal, firm and|sure; There|
w: soul,|Un- trou- bled by the|tem- * pest, Or|surg- ing bil- lows’|roll; Be|
w: fear,|God ban- ish- es our|sor- * row, God|wipes a- way our|tear; We’re|
 [EA]3 [DB] [Ec]2 [EF]2 | [DB]6 F2 | [EA]3 [DB] [Ec]2 F2 | [Fd]6 z2 | %12
w: is a safe re-|treat, A|re- fuge strong and|free,|
w: dan- gers what they|may, And|break the waves of|care,|
w: watch- ing, we be-|lieve, We|trust His prom- ise|sure,|
 [DF]2 [DF]>[^C=E] [DF]2 [Fd]2 | ([Fd]3 [Ec]) [DB]2 [F=B]2 | [Gc]3 [Gd] [Ge]2 A2 | [DB]6 z2 || %16
w: A- mid the storm- y|bil- * lows Of|life’s tem- pest- uous|sea.|
w: A- mid the wild com-|mo- * tion, We|stand in safe- ty|there.|
w: That crowns of joy are|wait- * ing For|all His saints se-|cure.|
"^Refrain" [Fd]6 [Fc]2 | [FB]4 [FB]4 | [EA]>[EB] [EA]>[EG] [EF]2 (GF) | [DF]4 [B,D]2 z2 | %20
w: Stand- ing,|stand- ing,|Stand- ing on the Rock of *|Ag- es,|
w: ||||
w: ||||
 [Fd]6 [Fc]2 | [FB]4 [FB]2 [FB]2 | (AB) (cd) [Fe]2 [EA]2 | [DB]6 z2 |] %24
w: Stand- ing,|stand- ing, No|need * have * I to|fear.|
w: ||||
w: ||||
V:2
 x8 | x8 | x8 | x8 | x8 | F4 x4 | x8 | F6 F2 | x8 | x6 F2 | x6 F2 | x8 | x8 | x8 | x6 (FE) | x8 || %16
 x8 | x8 | x6 E2 | x8 | x8 | x8 | F2 F2 x4 | x8 |] %24
V:3
 [B,,B,]>[B,,B,] [B,,B,]>[B,,B,] [B,,B,]2 [B,,B,]2 | [B,,B,]4 [B,,B,]2 [D,B,]2 | %2
w: ~ ~ ~ ~ ~ ~|~ ~ ~|
 [F,C]3 [F,A,] [F,B,]2 F,2 | [B,,F,]6 z2 | [B,,B,]2 [B,,B,]>[B,,B,] [B,,B,]2 [B,,B,]2 | %5
w: ~ ~ ~ ~|~|~ ~ ~ ~ ~|
 ([B,,B,]3 [C,A,]) [D,B,]2 [B,,B,]2 | [C,G,]3 [C,G,] [C,C]2 [C,B,]2 | [F,A,]6 [F,A,]2 | %8
w: ~ * ~ ~|~ ~ ~ ~|~ ~|
 [F,C]3 [F,B,] [F,A,]2 [F,C]2 | [B,,B,]6 [D,B,]2 | [F,C]3 [F,B,] [F,A,]2 A,2 | B,6 z2 | %12
w: ~ ~ ~ ~|~ ~|~ ~ ~ ~|~|
 [B,,B,]2 [B,,B,]>[B,,B,] [B,,B,]2 [B,,B,]2 | ([F,B,]3 [^F,A,]) [G,B,]2 [=F,D]2 | %14
w: ~ ~ ~ ~ ~|~ * ~ ~|
 [E,C]3 [D,=B,] [C,C]2 [F,C]2 | [B,,B,]6 z2 || [B,,B,]>[C,B,] [D,B,]>[E,B,] [F,B,]2 [G,E]>[A,E] | %17
w: ~ ~ ~ ~|~|Stand- ing on the Rock, I am|
 [B,D]>[B,D] [F,D]>[D,B,] [B,,D]4 | [F,C]>[F,D] [F,C]>[F,B,] [F,A,]2 [F,A,]2 | %19
w: stand- ing on the Rock|~ ~ ~ ~ ~ ~|
 [B,,B,]4 [B,,F,]2 z2 | [B,,B,]>[B,,B,] [D,B,]>[E,B,] [F,B,]2 [G,E]>[A,E] | %21
w: ~ ~|Stand- ing on the Rock, I am|
 [B,D]>[B,D] [F,D]>[D,B,] [B,,D]2 [D,B,]2 | (CB,) (A,B,) [F,C]2 [F,C]2 | [B,,B,]6 z2 |] %24
w: stand- ing on the Rock *|||
V:4
 x8 | x8 | x6 F,2 | x8 | x8 | x8 | x8 | x8 | x8 | x8 | x6 A,2 | B,6 x2 | x8 | x8 | x8 | x8 || x8 | %17
 x8 | x8 | x8 | x8 | x8 | F,2 F,2 x4 | x8 |] %24

